X: 18
T:Kullerullvisa
M:2/4
L:1/16
C:anon.
O:Sweden (Dalarna)
K:Bb
F2|B3F B2c2|d4 Bcde|f2fg f2e2|d4 b2a2|g3f e2d2|
c2b2 a2g2|f4 =efge|f4 z2 F2|B3F B2c2|d4 Bcde|
f2fg f2e2|d4 b2a2|g3f e2d2|c2b2 a2g2|f4 =efge|f4 z2||
|:Bd|d2b2 bc'ba|b2d2 e2f2|gbge fgfd|
B4 dedc|c2e2 g2ag|f2c2 efed|B8-|B4 z2:|
W:
W: From "Falaleiro" http://home.t-online.de/home/pheld/homepage.htm

